X:1
T:2 times in G, whistle stops
L:1/8
Q:1/4=160
M:6/8
K:G
"G""^2 times in G, whistle stops" B2 c B2 A |"G" G3 G2 B |"G" d2 d"C" e2 e |"G" d3- d2 z :|
"C" e2 e e2 B |"Am" c3 c2 c |"D" d2 d d2 A |"D" B3- B z2 |
"G" G z2 z3 | z6 | z6 | z6 |
 z6 | z6 |z6 | z5 |]:
